!!!!SEGMENT: 025_1-6-1d-BH-001.krn
!!!COM: Chopin, Fryderyk
!!!OTL: 1re Etude.
!!!OPS: Op. 25
!!!PTL: Douze Etudes
!!!PPR: Breitkopf & Härtel
!!!PPP: Leipzig
!!!NIFC-rismID: 1001014790
!!!NIFC-shelfmark: PL-Wbfc 4259/n
!!!OMD: Allegro sostenuto.
!!!OMD: (M.M. [quarter] = 104.)
**kern	**kern	**dynam
*I"1|re | ETUDE.	*	*
*part1	*part1	*part1
*staff2	*staff1	*
*clefF4	*clefG2	*
*k[b-e-a-d-]	*k[b-e-a-d-]	*
*A-:	*A-:	*
*M4/4	*M4/4	*
*met(c)	*met(c)	*
*MM104	*MM104	*
*Xtuplet	*Xtuplet	*
4r	(>4ee-	p
=1	=1	=1
*ped	*	*
!LO:TX:t=P:mixed beam:problem	!	!
24AAA-/LL	24ee-\LL	.
*cue	*cue	*
24E-\	24a-	.
24A-\	24cc	.
24c\	24e-	.
24A-\	24a-	.
24E-\JJ	24ccJJ	<
*Xcue	*Xcue	*
24AA-\LL	24ee-\LL	.
*cue	*cue	*
24E-	24a-	.
24A-	24cc	.
24c	24e-	.
24A-	24a-	.
24E-JJ	24ccJJ	.
*	*Xcue	*
24AA-\LL	24ee-\LL	.
*	*cue	*
24E-	24a-	.
24A-	24cc	.
24c	24e-	.
24A-	24a-	.
24E-JJ	24ccJJ	.
*	*Xcue	*
24AA-\LL	24ee-\LL	.
*	*cue	*
24E-	24a-	.
24A-	24cc	.
24c	24e-	.
24A-	24a-	.
24E-JJ	24ccJJ	[
=2	=2	=2
*	*Xcue	*
24AA-\LL	24ff\LL	.
*	*cue	*
24E-	24a-	.
24A-	24cc	.
24c	24e-	>
24A-	24a-	.
*Xped	*	*
24E-JJ	24ccJJ	.
*	*Xcue	*
*ped	*	*
24AA-\LL	24ee-\LL	.
*	*cue	*
24E-	24a-	.
24A-	24cc	.
24c	24e-	.
24A-	24a-	.
24E-JJ	24ccJJ	.
*	*Xcue	*
24AA-\LL	24ee-\LL	.
*	*cue	*
24E-	24a-	.
24A-	24cc	.
24c	24e-	.
24A-	24a-	.
24E-JJ	24ccJJ	.
*	*Xcue	*
24AA-\LL	24ee-\LL	.
*	*cue	*
24E-	24a-	.
24A-	24cc	.
24c	24e-	.
24A-	24a-	.
*Xped	*	*
24E-JJ	24ccJJ	]
!!LO:LB:g=original
=3	=3	=3
*	*Xcue	*
*ped	*	*
24AA-\LL	24ee-\LL	.
*	*cue	*
24E-	24b-	<
24G	24dd-	.
24d-	24e-	.
24G	24b-	.
24E-JJ	24dd-JJ	.
*	*Xcue	*
24AA-\LL	24ee-\LL	.
*	*cue	*
24E-	24b-	.
24G	24dd-	.
24d-	24e-	.
24G	24b-	.
24E-JJ	24dd-JJ	.
*	*Xcue	*
24AA-\LL	24ff\LL	.
*	*cue	*
24E-	24b-	.
24G	24dd-	.
24d-	24e-	.
24G	24b-	.
24E-\JJ	24dd-JJ	[
*	*Xcue	*
24AA-LL	24ee-\LL	>
*	*cue	*
24E-	24b-	.
24G	24dd-	.
24d-	24e-	.
24G	24b-	]
*Xped	*	*
24E-\JJ	24dd-JJ	.
=4	=4	=4
*	*Xcue	*
*ped	*	*
24AA-\LL	24bb-\LL	>
*	*cue	*
24E-	24cc	.
24A-	24ee-	.
24c	24e-	.
24A-	24cc	.
24E-JJ	24ee-JJ	.
*	*Xcue	*
24AA-\LL	24aa-\LL	.
*	*cue	*
24E-	24cc	.
24A-	24ee-	.
24c	24e-	.
24A-	24cc	.
*Xped	*	*
24E-JJ	24ee-JJ	]
*	*Xcue	*
*ped	*	*
24AA-\LL	24aa-\LL	<
*	*cue	*
24En	24cc	.
24A-	24een	.
24c	24en	.
24A-	24cc	.
24EJJ	24eeJJ	.
*	*Xcue	*
24AA-\LL	24aa-\LL	.
*	*cue	*
24E	24cc	.
24A-	24ee	.
24c	24e	.
24A-	24cc	.
*Xped	*	*
24EJJ	24eeJJ	[
!!LO:LB:g=original
=5	=5	=5
*Xcue	*Xcue	*
*ped	*	*
!LO:TX:t=P:mixed beam:problem	!	!
24DD-/LL	24aa-\LL	.
*cue	*cue	*
24A-\	24dd-	.
24d-\	24ff	.
24f\	24a-	.
24d-\	24dd-	.
24A-\JJ	24ffJJ	.
*Xcue	*Xcue	*
24D-\LL	24aa-\LL	.
*cue	*cue	*
24A-	24dd-	<
24d-	24ff	.
24f	24a-	.
24d-	24dd-	.
24A-JJ	24ffJJ	.
*	*Xcue	*
24D-\LL	24aa-\LL	.
*	*cue	*
24A-	24dd-	.
24d-	24ff	.
24f	24a-	.
24d-	24dd-	.
*Xped	*	*
24A-JJ	24ffJJ	.
*Xcue	*Xcue	*
*ped	*	*
24D-\LL	24bb-\LL	.
*cue	*cue	*
24G	24dd-	.
24d-	24ff	.
24f	24g	.
24d-	24dd-	.
*Xped	*	*
24GJJ	24ffJJ	[[
=6	=6	=6
*Xcue	*Xcue	*
*ped	*	*
24C\LL	24ccc\LL	.
*cue	*cue	*
24G	24cc	.
24c	24ff	.
24f	24g	.
24c	24cc	.
*Xped	*	*
24GJJ	24ffJJ	.
*	*Xcue	*
*ped	*	*
24C\LL	24bb-\LL	.
*	*cue	*
24G	24cc	.
24c	24een	.
24en	24g	.
24c	24cc	.
*Xped	*	*
24GJJ	24eeJJ	.
*	*Xcue	*
*ped	*	*
24F\LL	24aa-\LL	.
*	*cue	*
24A-	24cc	.
24c	24ff	.
24f	24a-	.
24c	24cc	.
*Xped	*	*
24A-JJ	24ffJJ	.
*Xcue	*Xcue	*
*ped	*	*
24C-X\LL^>	24ff\LL	.
*cue	*cue	*
24F	24cc-X	.
24A-	24ee-X	.
24e-X	24f	.
24A-	24cc-	.
*Xped	*	*
24FJJ	24ee-JJ	.
!!LO:LB:g=original
=7	=7	=7
*Xcue	*Xcue	*
*ped	*	*
24BB-\LL	24ff\LL	<
*cue	*cue	*
24F	24b-	.
24A-	24ee-	.
24e-	24f	.
24A-	24b-	.
24FJJ	24ee-JJ	.
*	*Xcue	*
24BB-\LL	24gg\LL	.
*	*cue	*
24F	24b-	.
24A-	24ee-	.
24e-	24f	.
24A-	24b-	.
*Xped	*	*
24FJJ	24ee-JJ	[
*	*Xcue	*
*ped	*	*
24BB-\LL	24aa-\LL	>
*	*cue	*
24F	24b-	.
24A-	24ddn	.
24dn	24f	.
24A-	24a-	.
24FJJ	24b-JJ	.
*	*Xcue	*
24BB-\LL	24b-/LL	.
*	*cue	*
24F	24f	.
24A-	24a-	.
24d	24B-	.
24A-	24f	]]
*Xped	*	*
24FJJ	24a-JJ	.
=8	=8	=8
*Xcue	*Xcue	*
*ped	*	*
24EE-\LL	24b-LL	f
*cue	*cue	*
24BB-	24e-	.
24E-	24a-	.
24d-X	24B-	.
24E-	24e-	.
*Xped	*	*
24BB-JJ	24a-JJ	.
*	*Xcue	*
*ped	*	*
24EE-\LL	24ccLL	.
*	*cue	*
24BB-	24e-	.
24E-	24a-	.
24A-	24B-	.
24E-	24e-	.
*Xped	*	*
24BB-JJ	24a-JJ	.
*	*Xcue	*
*ped	*	*
24EE-\LL	24dd-LL	.
*	*cue	*
24BB-	24e-	.
24E-	24g	.
24G	24B-	.
24E-	24d-	.
24BB-JJ	24e-JJ	.
*	*Xcue	*
24EE-\LL	24e-LL	.
*	*cue	*
24BB-	24B-	.
24D-	24d-	.
24G	24E-<	.
24D-	24B-	.
*Xped	*	*
24BB-JJ	24d-JJ	.
!!LO:LB:g=original
=9	=9	=9
*Xcue	*Xcue	*
*ped	*	*
!LO:TX:t=P:mixed beam:problem	!	!
24AAA-/LL	24ee-\LL	p
*cue	*cue	*
24E-\	24a-	.
24A-\	24cc	.
24c\	24e-	.
24A-\	24a-	.
24E-\JJ	24ccJJ	.
*Xcue	*Xcue	*
24AA-\LL	24ee-\LL	.
*cue	*cue	*
24E-	24a-	.
24A-	24cc	.
24c	24e-	.
24A-	24a-	.
24E-JJ	24ccJJ	<
*	*Xcue	*
24AA-\LL	24ee-\LL	.
*	*cue	*
24E-	24a-	.
24A-	24cc	.
24c	24e-	.
24A-	24a-	.
24E-JJ	24ccJJ	.
*	*Xcue	*
24AA-\LL	24ee-\LL	.
*	*cue	*
24E-	24a-	.
24A-	24cc	.
24c	24e-	.
24A-	24a-	.
24E-JJ	24ccJJ	.
=10	=10	=10
*	*Xcue	*
24AA-\LL	24ff\LL	.
*	*cue	*
24E-	24a-	.
24A-	24cc	[
24c	24e-	>
24A-	24a-	.
*Xped	*	*
24E-JJ	24ccJJ	.
*	*Xcue	*
*ped	*	*
24AA-\LL	24ee-\LL	.
*	*cue	*
24E-	24a-	.
24A-	24cc	.
24c	24e-	.
24A-	24a-	.
24E-JJ	24ccJJ	.
*	*Xcue	*
24AA-\LL	24ee-\LL	.
*	*cue	*
24E-	24a-	.
24A-	24cc	.
24c	24e-	.
24A-	24a-	.
24E-JJ	24ccJJ	.
*	*Xcue	*
24AA-\LL	24ee-\LL	.
*	*cue	*
24E-	24a-	.
24A-	24cc	.
24c	24e-	.
24A-	24a-	]
*Xped	*	*
24E-JJ	24ccJJ	.
!!LO:LB:g=original
=11	=11	=11
*	*Xcue	*
*ped	*	*
24AA-\LL	24ee-\LL	<
*	*cue	*
24E-	24b-	.
24G	24dd-	.
24d-	24e-	.
24G	24b-	.
24E-JJ	24dd-JJ	.
*	*Xcue	*
24AA-\LL	24bb-\LL	.
*	*cue	*
24E-	24b-	.
24G	24dd-	.
24d-	24e-	.
24G	24b-	.
*Xped	*	*
24E-JJ	24dd-JJ	.
*	*Xcue	*
*ped	*	*
24AA-\LL	24ccc\LL	.
*	*cue	*
24E-	24b-	.
24G	24dd-	[
24d-	24e-	.
24G	24b-	.
24E-JJ	24dd-JJ	.
*	*Xcue	*
24AA-\LL	24gg\LL	.
*	*cue	*
24E-	24b-	.
24G	24dd-	.
24d-	24e-	.
24G	24b-	.
*Xped	*	*
24E-JJ	24dd-JJ	.
=12	=12	=12
*	*Xcue	*
*ped	*	*
24AA-\LL	24bb-\LL	>
*	*cue	*
24E-	24cc	.
24A-	24ee-	.
24c	24e-	.
24A-	24cc	.
24E-JJ	24ee-JJ	.
*	*Xcue	*
24AA-\LL	24aa-\LL	.
*	*cue	*
24E-	24cc	.
24A-	24ee-	.
24c	24e-	.
24A-	24cc	.
*Xped	*	*
24E-JJ	24ee-JJ	.
*	*Xcue	*
*ped	*	*
24AA-\LL	24aa-\LL	.
*	*cue	*
24En	24cc	]]
24A-	24een	.
24c	24en	<
24A-	24cc	.
24EJJ	24eeJJ	.
*	*Xcue	*
24AA-\LL	24aa-\LL	.
*	*cue	*
24E	24cc	.
24A-	24ee	.
24c	24e	.
24A-	24cc	.
*Xped	*	*
24EJJ	24eeJJ	[
!!LO:PB:g=original
=13	=13	=13
*Xcue	*Xcue	*
*ped	*	*
!LO:TX:t=P:mixed beam:problem	!	!
24DD-/LL	24aa-\LL	.
*cue	*cue	*
24A-\	24dd-	.
24d-\	24ff	.
24f\	24a-	<
24d-\	24dd-	.
24A-\JJ	24ffJJ	.
*	*Xcue	*
24D-\LL	24aa-\LL	.
*	*cue	*
24A-	24dd-	.
24d-	24ff	.
24f	24a-	.
24d-	24dd-	.
24A-JJ	24ffJJ	.
*	*Xcue	*
24D-\LL	24aa-\LL	.
*	*cue	*
24A-	24dd-	.
24d-	24ff	.
24f	24a-	.
24d-	24dd-	.
*Xped	*	*
24A-JJ	24ffJJ	.
*	*Xcue	*
*ped	*	*
24D-\LL	24bb-\LL	.
*	*cue	*
24G	24dd-	.
24d-	24ff	.
24f	24g	.
24d-	24dd-	.
*Xped	*	*
24GJJ	24ffJJ	[
=14	=14	=14
*Xcue	*Xcue	*
*ped	*	*
24C\LL	24ccc\LL	>
*cue	*cue	*
24G	24cc	.
24c	24ff	.
24f	24g	.
24c	24cc	.
24GJJ	24ffJJ	.
*	*Xcue	*
24C\LL	24gg\LL	.
*	*cue	*
24G	24cc	.
24c	24ff	.
24f	24g	.
24c	24cc	.
*Xped	*	*
24GJJ	24ffJJ	.
*	*Xcue	*
*ped	*	*
24C\LL	24gg\LL	.
*	*cue	*
24G	24cc	.
24c	24een	.
24en	24g	.
24c	24cc	.
24GJJ	24eeJJ	.
*	*Xcue	*
24C\LL	24gg\LL	.
*	*cue	*
24G	24cc	.
24c	24ee	.
24e	24g	.
24c	24cc	]
*Xped	*	*
24GJJ	24eeJJ	.
!!LO:LB:g=original
=15	=15	=15
*Xcue	*Xcue	*
*ped	*	*
24GG\LL	24gg\LL	<
*cue	*cue	*
24Dn	24bn	.
24G	24een	.
24Bn	24f	.
24G	24b	.
*Xped	*	*
24DJJ	24eeJJ	.
*	*Xcue	*
*ped	*	*
24GG\LL	24gg\LL	.
*	*cue	*
24D	24b	.
24G	24ddn	.
24B	24f	.
24G	24b	.
24DJJ	24ddJJ	.
*	*Xcue	*
24GG\LL	24gg\LL	.
*	*cue	*
24D	24b	.
24G	24ff	.
24dn	24f	.
24G	24b	.
*Xped	*	*
24DJJ	24ffJJ	[
*	*Xcue	*
*ped	*	*
24GG\LL	24gg\LL	>
*	*cue	*
24D	24b	.
24G	24ee	.
24d	24f	]
24G	24b	.
*Xped	*	*
24DJJ	24eeJJ	.
=16	=16	=16
*Xcue	*Xcue	*
*ped	*	*
24CC\LL	24ddn^\LL	.
*cue	*cue	*
24GG	24f	.
24C	24g	.
24G	24c	.
24C	24f	.
*Xped	*	*
24GGJJ	24gJJ	.
*	*Xcue	*
*ped	*	*
24CC\LL	24cc\LL	.
*	*cue	*
24GG	24en	.
24C	24g	.
24G	24c	.
24C	24e	.
*Xped	*	*
24GGJJ	24gJJ	.
*	*Xcue	*
*ped	*	*
24CC\LL	24cc\LL	.
*	*cue	*
24GG	24dn	.
24C	24g	.
24G	24c	.
24C	24d	.
*Xped	*	*
24GGJJ	24gJJ	.
*ped	*	*
20CC\LL	24cc\LL	.
.	24e	.
20GG	.	.
.	24g	.
20C	.	.
.	24c	.
20G	.	.
.	24e	.
*Xped	*	*
20CJJ	.	.
.	24gJJ	.
!!LO:LB:g=original
=17	=17	=17
*Xcue	*Xcue	*
*ped	*	*
16EEn\LL	24cc\LL	.
*cue	*cue	*
.	24g	.
16C	.	.
.	24b-	.
*Xcue	*	*
16B-	24c	<
*cue	*	*
.	24g	.
16CJJ	.	.
.	24b-JJ	.
*	*Xcue	*
16EE\LL	24cc\LL	.
*	*cue	*
.	24g	.
16C	.	.
.	24b-	.
*Xcue	*	*
16B-	24c	.
*cue	*	*
.	24g	.
*Xped	*	*
16CJJ	.	.
.	24b-JJ	[
*	*Xcue	*
*ped	*	*
16EE\LL	24dd-\LL	>
*	*cue	*
.	24g	.
16C	.	.
.	24b-	.
*Xcue	*	*
16B-	24d-	.
*cue	*	*
.	24g	.
*Xped	*	*
16CJJ	.	.
.	24b-JJ	]
*	*Xcue	*
*ped	*	*
16EE\LL	24cc\LL	.
*	*cue	*
.	24g	.
16C	.	.
.	24b-	.
*Xcue	*	*
16B-	24c	.
*cue	*	*
.	24g	.
*Xped	*	*
16CJJ	.	.
.	24b-JJ	.
=18	=18	=18
*	*Xcue	*
*ped	*	*
16FF\LL	24cc\LL	.
*	*cue	*
.	24f	<
16C	.	.
.	24b-	.
*Xcue	*	*
16B-	24c	.
*cue	*	*
.	24f	.
*Xped	*	*
16CJJ	.	.
.	24b-JJ	.
*	*Xcue	*
*ped	*	*
16FF\LL	24ddn\LL	.
*	*cue	*
.	24f	.
16C	.	.
.	24a-	.
*Xcue	*	*
16A-	24c	.
*cue	*	*
.	24f	.
*Xped	*	*
16CJJ	.	.
.	24a-JJ	.
*	*Xcue	*
*ped	*	*
16FF\LL	24een\LL	.
*	*cue	*
.	24g	.
16C	.	.
.	24cc	.
*Xcue	*	*
16G	24c	.
*cue	*	*
.	24g	.
*Xped	*	*
16CJJ	.	.
.	24ccJJ	.
*	*Xcue	*
*ped	*	*
16FF\LL	24ff\LL	.
*	*cue	*
.	24a-	.
16C	.	.
.	24cc	.
*Xcue	*	*
16F	24c	.
*cue	*	*
.	24a-	.
*Xped	*	*
16CJJ	.	.
.	24ccJJ	[
!!LO:LB:g=original
=19	=19	=19
*Xcue	*Xcue	*
*ped	*	*
16GG\LL	24ee-X\LL	.
*cue	*cue	*
.	24b-	.
16E-	.	.
.	24dd-	.
*Xcue	*	*
16d-X	24e-	.
*cue	*	*
.	24b-	.
16E-JJ	.	.
.	24dd-JJ	.
*Xcue	*Xcue	*
16GG\LL	24ee-\LL	<
*cue	*cue	*
.	24b-	.
16E-	.	.
.	24dd-	.
*Xcue	*	*
16d-	24e-	.
*cue	*	*
.	24b-	.
*Xped	*	*
16E-JJ	.	.
.	24dd-JJ	.
*	*Xcue	*
*ped	*	*
16GG\LL	24ff\LL	.
*	*cue	*
.	24b-	.
16E-	.	.
.	24dd-	.
*Xcue	*	*
16d-	24e-	.
*cue	*	*
.	24b-	.
*Xped	*	*
16E-JJ	.	.
.	24dd-JJ	[
*	*Xcue	*
*ped	*	*
16GG\LL	24ee-\LL	>
*	*cue	*
.	24b-	.
16E-	.	.
.	24dd-	.
*Xcue	*	*
16d-	24e-	.
*cue	*	*
.	24b-	.
*Xped	*	*
16E-JJ	.	.
.	24dd-JJ	]
=20	=20	=20
*Xcue	*Xcue	*
*ped	*	*
16AA-\LL	24ee-\LL	<
*cue	*cue	*
.	24a-	.
16E-	.	.
.	24dd-	.
*Xcue	*	*
16d-	24e-	.
*cue	*	*
.	24a-	.
*Xped	*	*
16E-JJ	.	.
.	24dd-JJ	.
*	*Xcue	*
*ped	*	*
16AA-\LL	24ff\LL	.
*	*cue	*
.	24a-	.
16E-	.	.
.	24cc	.
*Xcue	*	*
16c	24e-	.
*cue	*	*
.	24a-	.
*Xped	*	*
16E-JJ	.	.
.	24ccJJ	.
*	*Xcue	*
*ped	*	*
16AA-\LL	24gg\LL	.
*	*cue	*
.	24a-	.
16E-	.	.
.	24cc	.
*Xcue	*	*
16B-	24e-	.
*cue	*	*
.	24a-	.
*Xped	*	*
16E-JJ	.	.
.	24ccJJ	.
*	*Xcue	*
*ped	*	*
16AA-\LL	24aa-\LL	.
*	*cue	*
.	24a-	.
16E-	.	.
.	24cc	.
*Xcue	*	*
16A-	24e-	.
*cue	*	*
.	24a-	[
*Xped	*	*
16E-JJ	.	.
.	24ccJJ	.
!!LO:LB:g=original
=21	=21	=21
*Xcue	*Xcue	*
*ped	*	*
16EE-\LL	24gg\LL	.
*cue	*cue	*
.	24cc	.
16G	.	.
.	24ee-	.
16c	24g	.
.	24cc	.
16GJJ	.	.
.	24ee-JJ	.
*	*Xcue	*
16C\LL	24gg\LL	>
*	*cue	*
.	24cc	.
16G	.	.
.	24ee-	.
16c	24g	.
.	24cc	.
*Xped	*	*
16GJJ	.	.
.	24ee-JJ	.
*Xcue	*Xcue	*
*ped	*	*
16FF\LL	24aa-\LL	.
*cue	*cue	*
.	24cc	.
16Dn	.	.
.	24ddn	.
16c	24a-	.
.	24cc	.
*Xped	*	*
16DJJ	.	.
.	24ddJJ	.
*Xcue	*Xcue	*
*ped	*	*
20GG\LL	24ff\LL	.
*cue	*cue	*
.	24bn	.
20D	.	.
.	24dd	.
20Bn	.	.
.	24f	.
20G	.	.
.	24b	.
*Xped	*	*
20DJJ	.	.
.	24ddJJ)	]
=22	=22	=22
*Xcue	*Xcue	*
*ped	*	*
24C\LL	(>24een\LL	p
*cue	*cue	*
24En	24g	<
24G	24cc	.
24c	24en	.
24G	24g	.
*Xped	*	*
24EJJ	24ccJJ	.
*	*Xcue	*
*ped	*	*
24C\LL	24ddn\LL	.
*	*cue	*
24F	24a-X	.
24A-X	24bn	.
24Bn	24d-	.
24A-	24a-	.
24FJJ	24bJJ	[
*	*Xcue	*
24C\LL	24ff\LL	>
*	*cue	*
24F	24a-	.
24A-	24bn	.
24dn	24f	.
24A-	24a-	.
*Xped	*	*
24FJJ	24bJJ	.
*	*Xcue	*
*ped	*	*
24C\LL	24ee\LL	.
*	*cue	*
24E	24a-	.
24G#	24b	.
24d	24e	.
24G#	24a-	]]
*Xped	*	*
24EJJ	24bJJ	.
!!LO:LB:g=original
=23	=23	=23
*Xcue	*Xcue	*
*ped	*	*
24C\LL	24een\LL	.
*cue	*cue	*
24En	24g	.
24G	24cc	.
24c	24en	.
24G	24g	<
*Xped	*	*
24EJJ	24ccJJ	.
*Xcue	*Xcue	*
*ped	*	*
24BBn\LL	24ddn\LL	.
*cue	*cue	*
24F	24g#X	.
24G#X	24bn	.
24Bn	24dn	.
24G#	24g#	.
24FJJ	24bJJ	.
*	*Xcue	*
24BB\LL	24ff\LL	[
*	*cue	*
24F	24g#	>
24G#	24b	.
24dn	24f	.
24G#	24g#	.
*Xped	*	*
24FJJ	24bJJ	.
*	*Xcue	*
*ped	*	*
24BB\LL	24ee\LL	]]
*	*cue	*
24E	24g#	.
24G#	24b	.
24d	24e	.
24G#	24g#	.
*Xped	*	*
24EJJ	24bJJ)	.
=24	=24	=24
*Xcue	*Xcue	*
*ped	*	*
24AAn\LL	(>24een\LL	.
*cue	*cue	*
24En	24an	.
24An	24cc#X	<
!	!LO:TX:a:i:t=ritenuto._:dur=7qe:ext=ud:problem:text with extention lines	!
24c#X	24en	.
24A	24a	.
*Xped	*	*
24EJJ	24cc#JJ	.
*	*Xcue	*
*ped	*	*
24AA\LL	24ddn\LL	.
*	*cue	*
24F#	24a	.
24A	24bn	.
!	!LO:TX:a:t=P:kreski do końca taktu 25.:problem	!
24Bn	24dn	.
24A	24a	.
24F#JJ	24bJJ	[
*	*Xcue	*
24AA\LL	24ff#X\LL	>
*	*cue	*
24F#	24a	.
24A	24b	.
24dn	24f#X	.
24A	24a	.
*Xped	*	*
24F#JJ	24bJJ	.
*	*Xcue	*
*ped	*	*
24AA\LL	24ee\LL	.
*	*cue	*
24E	24g#X	.
24G#X	24dd	.
24d	24e	.
24G#	24g#	]
*Xped	*	*
24EJJ	24ddJJ	.
!!LO:PB:g=original
=25	=25	=25
*	*	*^
*	*Xcue	*	*
*ped	*	*	*
24AAn\LL	24een\LL	<	.
*	*cue	*	*
24En	24an	.	.
24An	24cc#X	.	.
24c#X	24en	.	.
24A	24a	.	.
24EJJ	24cc#JJ	.	.
*	*Xcue	*	*
24AA\LL	24aan\LL	.	.
*	*cue	*	*
24E	24cc#	.	.
24A	24ee	.	.
24c#	24a	.	.
24A	24cc#	.	.
*Xped	*	*	*
24EJJ	24eeJJ	.	.
*ped	*	*	*
.	.	.	<
*	*Xcue	*	*
24AA\LL	24bbn\LL	.	.
*	*cue	*	*
24D#X	24dd#X	.	.
24F#X	24ff#X	.	.
24cn	24a	.	.
24F#	24dd#	.	.
*Xped	*	*	*
24D#JJ	24ff#JJ	.	.
*ped	*	*	*
*	*Xcue	*	*
24AA-X\LL	24ccc\LL	.	.
*	*cue	*	*
24E-X	24ee-X	.	.
24G-X	24gg-X	.	.
24c	24a-X	.	.
24G-	24ee-	.	.
*Xped	*	*	*
24E-JJ	24gg-JJ	[	.
*	*	*v	*v
=26	=26	=26
*Xcue	*Xcue	*
*ped	*	*
!LO:TX:t=P:mixed beam:problem	!	!
24DD-/LL	24ccc\LL	f
*cue	*cue	*
24A-\	24dd-	.
24B-\	24ff	.
24d-\	24f	.
24B-\	24dd-	.
*Xped	*	*
24A-\JJ	24ffJJ	.
*Xcue	*Xcue	*
*ped	*	*
24D-\LL	24bb-\LL	.
*cue	*cue	*
24A-	24dd-	.
24B-	24ff	.
24d-	24f	.
24B-	24dd-	.
24A-JJ	24ffJJ	.
*Xcue	*Xcue	*
!LO:TX:t=P:mixed beam:problem	!	!
24DD-/LL	24ddd-\LL	.
*cue	*cue	*
24A-\	24b-	.
24B-\	24dd-	.
24d-\	24f	.
24B-\	24b-	.
24A-\JJ	24dd-JJ	.
*	*Xcue	*
24D-\LL	24ff\LL	.
*	*cue	*
24A-	24b-	.
24B-	24dd-	.
24d-	24f	.
24B-	24b-	.
*Xped	*	*
24A-JJ	24dd-JJ	.
!!LO:LB:g=original
=27	=27	=27
*Xcue	*Xcue	*
*ped	*	*
24EE-\LL	24bb-\LL	.
*cue	*cue	*
24E-	24cc	.
24A-	24ee-	.
24c	24e-	.
24A-	24cc	.
*Xped	*	*
24E-JJ	24ee-JJ	.
*	*Xcue	*
*ped	*	*
24C\LL	24aa-\LL	.
*	*cue	*
24E-	24cc	.
24A-	24ee-	.
24c	24e-	.
24A-	24cc	.
24E-JJ	24ee-JJ	.
*Xcue	*Xcue	*
24EE-\LL	24ccc\LL	.
*cue	*cue	*
24E-	24a-	.
24A-	24cc	.
24c	24e-	.
24A-	24a-	.
24E-JJ	24ccJJ	.
*	*Xcue	*
24C\LL	24ee-\LL	.
*	*cue	*
24E-	24a-	.
24A-	24cc	.
24c	24e-	.
24A-	24a-	.
*Xped	*	*
24E-JJ	24ccJJ)	.
=28	=28	=28
*Xcue	*Xcue	*
*ped	*	*
24EE-/LL	(>24ee-\LL	.
*cue	*cue	*
24E-\	24g	.
24G	24b-	.
24e-	24d-	.
24G	24g	.
*Xped	*	*
24E-JJ	24b-JJ	.
*	*Xcue	*
*ped	*	*
24BB-\LL	24een\LL	.
*	*cue	*
24E-	24g	.
24G	24b-	.
24e-	24d-	.
24G	24g	.
*Xped	*	*
24E-JJ	24b-JJ	.
*Xcue	*Xcue	*
*ped	*	*
24EE-/LL	24ff\LL	.
*cue	*cue	*
24E-\	24g	.
24G	24b-	.
24e-	24d-	.
24G	24g	.
*Xped	*	*
24E-JJ	24b-JJ	.
*	*Xcue	*
*ped	*	*
24BB-\LL	24ee-X\LL	.
*	*cue	*
24E-	24g	.
24G	24b-	.
24e-	24d-	.
24G	24g	.
*Xped	*	*
24E-JJ	24b-JJ	.
!!LO:LB:g=original
=29	=29	=29
*Xcue	*Xcue	*
*ped	*	*
16FF\LL	24dd-\LL	>
*cue	*cue	*
.	24f	.
16F	.	.
.	24a-	.
16A-	24d-	.
.	24f	.
*Xped	*	*
16FJJ	.	.
.	24a-JJ	.
*	*Xcue	*
*ped	*	*
20C\LL	24cc\LL	.
*	*cue	*
.	24f	.
20F	.	.
.	24a-	.
20A-	.	.
.	24c	.
20F	.	.
.	24f	.
*Xped	*	*
20CJJ	.	.
.	24a-JJ	.
*Xcue	*Xcue	*
*ped	*	*
16FF\LL	24cc\LL)	.
*cue	*cue	*
.	24e-	.
16F	.	.
.	24f	.
16An	24c	.
.	24e-	]
16FJJ	.	.
.	24fJJ	.
*	*Xcue	*
20C\LL	(>24ccc\LL	.
*	*cue	*
.	24ee-	.
20F	.	.
.	24ff^<	.
20A	.	.
.	24cc	.
20F	.	.
.	24ee-	.
20CJJ	.	.
*Xped	*	*
.	24ffJJ	.
=30	=30	=30
*Xcue	*Xcue	*
*ped	*	*
!LO:TX:t=P:mixed beam:problem	!	!
24BBB-/LL	24ccc\LL	.
*cue	*cue	*
24F\	24dd-	.
24B-\	24ff	.
24d-\	24f	.
24B-\	24dd-	.
*Xped	*	*
24F\JJ	24ffJJ	.
*	*Xcue	*
*ped	*	*
24BB-\LL	24bb-\LL	.
*	*cue	*
24F	24dd-	.
24B-	24ff	.
24d-	24f	.
24B-	24dd-	.
*Xped	*	*
24FJJ	24ffJJ	.
*Xcue	*Xcue	*
*ped	*	*
!LO:TX:t=P:mixed beam:problem	!	!
24BBB-/LL	24ddd-\LL	.
*cue	*cue	*
24F-X\	24b-	.
24A-\	24dd-	.
24d-\	24f-X	.
24A-\	24b-	.
24F-\JJ	24dd-JJ	.
*	*Xcue	*
24BB-\LL	24ff-X\LL)	.
*	*cue	*
24F-	24b-	.
24A-	24dd-	.
24d-	24f-	.
24A-	24b-	.
*Xped	*	*
24F-JJ	24dd-JJ	.
!!LO:LB:g=original
=31	=31	=31
*Xcue	*Xcue	*
*ped	*	*
24EE-/LL	(>24bb-\LL	.
*cue	*cue	*
24E-\	24cc	.
24A-	24ee-	.
24c	24e-	.
24A-	24cc	.
*Xped	*	*
24E-JJ	24ee-JJ	.
*	*Xcue	*
*ped	*	*
24C/LL	24aa-\LL	.
*	*cue	*
24E-\	24cc	.
24A-	24ee-	.
24c	24e-	.
24A-	24cc	.
24E-JJ	24ee-JJ	.
*Xcue	*Xcue	*
24EE-/LL	24ccc\LL	.
*cue	*cue	*
24E-\	24a-	.
24A-	24cc	.
24c	24e-	.
24A-	24a-	.
24E-JJ	24ccJJ	.
*	*Xcue	*
24C\LL	24ee-\LL	.
*	*cue	*
24E-	24a-	.
24A-	24cc	.
24c	24e-	.
24A-	24a-	.
*Xped	*	*
24E-JJ	24ccJJ)	.
=32	=32	=32
*Xcue	*Xcue	*
*ped	*	*
!LO:TX:t=P:mixed beam:problem	!	!
16EE-/LL	(>24ee-\LL	.
*cue	*cue	*
.	24an	.
16An\	.	.
.	24cc	.
16c\	24e-	.
.	24a	.
16A\JJ	.	.
.	24ccJJ	.
*	*Xcue	*
!	!LO:TX:i:t=cre-scen-do.:dur=10q:ext=ud:problem:text with extention lines	!
20E-\LL	24ff\LL	.
*	*cue	*
.	24a	.
20A	.	.
.	24cc	.
20c	.	.
.	24e-	.
20A	.	.
.	24a	.
*Xped	*	*
20E-JJ	.	.
.	24ccJJ	.
*Xcue	*Xcue	*
*ped	*	*
!LO:TX:t=P:mixed beam:problem	!	!
16EE-/LL	24gg-X\LL	.
*cue	*cue	*
.	24a	.
16A\	.	.
.	24cc	.
16c\	24e-	.
.	24a	.
*Xped	*	*
16A\JJ	.	.
.	24ccJJ	.
*	*Xcue	*
*ped	*	*
20E-\LL	24ff\LL	.
*	*cue	*
.	24a	.
20A	.	.
.	24cc	.
20f	.	.
.	24e-	.
20A	.	.
.	24a	.
*Xped	*	*
20E-JJ	.	.
.	24ccJJ	.
!!LO:LB:g=original
=33	=33	=33
*Xcue	*Xcue	*
*ped	*	*
!LO:TX:t=P:mixed beam:problem	!	!
16EE-/LL	24ff\LL	.
*cue	*cue	*
.	24b-	.
16B-\	.	.
.	24dd-	.
16f\	24d-	.
.	24b-	.
16B-\JJ	.	.
.	24dd-JJ	.
*	*Xcue	*
20E-\LL	24gg\LL	.
*	*cue	*
.	24b-	.
20B-	.	.
.	24dd-	.
20d-	.	.
.	24f	.
20B-	.	.
.	24b-	.
*Xped	*	*
20E-JJ	.	.
.	24dd-JJ	.
*Xcue	*Xcue	*
*ped	*	*
!LO:TX:t=P:mixed beam:problem	!	!
16EE-/LL	24aa-\LL	.
*cue	*cue	*
.	24bn	.
16Bn\	.	.
.	24dd-	.
16dn\	24f	.
.	24b	.
16B\JJ	.	.
.	24dd-JJ	.
*	*Xcue	*
20E-\LL	24gg\LL	.
*	*cue	*
.	24b	.
20B	.	.
.	24dd-	.
20g	.	.
.	24f	.
20B	.	.
.	24b	.
*Xped	*	*
20E-JJ	.	.
.	24dd-JJ	.
=34	=34	=34
*Xcue	*Xcue	*
*ped	*	*
!LO:TX:t=P:mixed beam:problem	!	!
16EE-/LL	24gg\LL	.
*cue	*cue	*
.	24cc	.
16c\	.	.
.	24ee-	.
16g\	24e-	.
.	24cc	.
16c\JJ	.	.
.	24ee-JJ	.
*	*Xcue	*
20E-\LL	24aa-\LL	.
*	*cue	*
.	24cc	.
20c	.	.
.	24ee-	.
20e-	.	.
.	24a-	.
20c	.	.
.	24cc	.
20E-JJ	.	.
*Xped	*	*
.	24ee-JJ	.
*Xcue	*Xcue	*
*ped	*	*
!LO:TX:t=P:mixed beam:problem	!	!
16EE-/LL	24aan\LL	.
*cue	*cue	*
.	24cc	.
16c\	.	.
.	24ee-	.
16g-X\	24an	.
.	24cc	.
16c\JJ	.	.
.	24ee-JJ	.
!	!LO:TX:a:i:t=appassionato.	!
*	*Xcue	*
20E-\LL	24ggg-X\LL	.
*	*cue	*
.	24aa	.
20c	.	.
.	24ccc	.
20an	.	.
.	24ee-	.
20e-	.	.
.	24aa	.
20cJJ	.	.
*Xped	*	*
.	24cccJJ	.
!!LO:LB:g=original
=35	=35	=35
*Xcue	*Xcue	*
*ped	*	*
24E-\LL	24fff\LL	.
*cue	*cue	*
24B-	24ff	.
24dn	24aa-X	.
24a-X	24b-	.
24d	24ff	.
24B-JJ	24aa-JJ	.
*Xcue	*Xcue	*
24E-\LL	24bb-\LL	.
*cue	*cue	*
24B-	24ff	.
24d	24aa-	.
24a-	24b-	.
24d	24ff	.
*Xped	*	*
24B-JJ	24aa-JJ	.
*Xcue	*Xcue	*
*ped	*	*
24E-\LL	24ddd-X\LL	.
*cue	*cue	*
24B-	24ff-X	.
24d-X	24aa-	.
24a-	24b-	.
24d-	24ff-	.
*Xped	*	*
24B-JJ	24aa-JJ	.
*Xcue	*Xcue	*
*ped	*	*
24E-\LL	24gg\LL	.
*cue	*cue	*
24B-	24dd-	.
24d-	24ee-	.
24e-	24g	.
24d-	24dd-	.
*Xped	*	*
24B-JJ	24ee-JJ	.
=36	=36	=36
*Xcue	*Xcue	*
*ped	*	*
24AA-\LL	)24aa-\LL	fz
*cue	*cue	*
24E-	(>24a-	.
24A-	24cc	p
24c	24e-	.
24A-	24a-	.
*Xped	*	*
24E-JJ	24ccJJ	.
*	*Xcue	*
*ped	*	*
24AA-\LL	24ee-\LL	.
*	*cue	*
24E-	24a-	.
24A-	24cc	.
24c	24e-	<
24A-	24a-	.
24E-JJ	24ccJJ	.
*	*Xcue	*
24AA-\LL	24ee-\LL	.
*	*cue	*
24E-	24a-	.
24A-	24cc	.
24c	24e-	.
24A-	24a-	.
24E-JJ	24ccJJ	.
*	*Xcue	*
24AA-\LL	24ee-\LL	.
*	*cue	*
24E-	24a-	.
24A-	24cc	.
24c	24e-	.
24A-	24a-	.
*Xped	*	*
24E-JJ	24ccJJ	[
!!LO:PB:g=original
=37	=37	=37
*	*Xcue	*
*ped	*	*
24AA-\LL	24ff\LL	.
*	*cue	*
24E-	24b-	.
24G	24dd-	.
24d-	24f	.
24G	24b-	.
*Xped	*	*
24E-JJ	24dd-JJ	.
*	*Xcue	*
*ped	*	*
24AA-\LL	24ee-\LL	>
*	*cue	*
24E-	24b-	.
24G	24dd-	.
24d-	24e-	.
24G	24b-	.
24E-JJ	24dd-JJ	]
*	*Xcue	*
24AA-\LL	24ccc\LL	.
*	*cue	*
24E-	24b-	.
24G	24dd-	.
24d-	24e-	.
24G	24b-	.
24E-JJ	24dd-JJ	.
*	*Xcue	*
24AA-\LL	24gg\LL	.
*	*cue	*
24E-	24b-	.
24G	24dd-	.
24d-	24e-	.
24G	24b-	.
*Xped	*	*
24E-JJ	24dd-JJ	.
=38	=38	=38
*	*Xcue	*
*ped	*	*
24AA-\LL	)24aa-\LL	.
*	*cue	*
24E-	(>24a-	.
24A-	24cc	.
24c	24e-	.
24A-	24a-	.
*Xped	*	*
24E-JJ	24ccJJ	.
*	*Xcue	*
*ped	*	*
24AA-\LL	24ee-\LL	.
*	*cue	*
24E-	24a-	.
24A-	24cc	.
24c	24e-	.
24A-	24a-	.
24E-JJ	24ccJJ	.
*	*Xcue	*
24AA-\LL	24ee-\LL	<
*	*cue	*
24E-	24a-	.
24A-	24cc	.
24c	24e-	.
24A-	24a-	.
24E-JJ	24ccJJ	.
*	*Xcue	*
24AA-\LL	24ee-\LL	.
*	*cue	*
24E-	24a-	.
24A-	24cc	.
24c	24e-	.
24A-	24a-	.
*Xped	*	*
24E-JJ	24ccJJ	[
!!LO:LB:g=original
=39	=39	=39
*	*Xcue	*
*ped	*	*
24AA-\LL	24ff\LL	>
*	*cue	*
24E-	24b-	.
24G	24dd-	.
24d-	24e-	.
24G	24b-	.
*Xped	*	*
24E-JJ	24dd-JJ	.
*	*Xcue	*
*ped	*	*
24AA-\LL	24ee-\LL	.
*	*cue	*
24E-	24b-	.
24G	24dd-	]
24d-	24e-	.
24G	24b-	.
24E-JJ	24dd-JJ	.
*	*Xcue	*
24AA-\LL	24fff\LL	pp
*	*cue	*
24E-	24b-	.
24G	24dd-	.
24d-	24e-	.
24G	24b-	.
24E-JJ	24dd-JJ	.
*	*Xcue	*
24AA-\LL	24gg\LL	.
*	*cue	*
24E-	24b-	.
24G	24dd-	.
24d-	24e-	.
24G	24b-	.
*Xped	*	*
24E-JJ	24dd-JJ	.
=40	=40	=40
*	*Xcue	*
*ped	*	*
24AA-\LL	)24aa-\LL	.
*	*cue	*
24E-	(>24a-	.
24A-	24cc	.
24c	24e-	.
24A-	24a-	.
*Xped	*	*
24E-JJ	24ccJJ	.
*	*Xcue	*
*ped	*	*
24AA-\LL	24ee-\LL	.
*	*cue	*
24E-	24a-	.
24A-	24cc	.
24c	24e-	.
24A-	24a-	.
24E-JJ	24ccJJ	.
*	*Xcue	*
!	!LO:TX:t=dimin. _:problem:dynamics with extention lines	!LO:HP:i:t=dimin.
24AA-\LL	24ff\LL	>
*	*cue	*
!	!	!
24E-	24a-	.
24A-	24cc	.
24c	24e-	.
24A-	24a-	.
*Xped	*	*
24E-JJ	24ccJJ	.
*	*Xcue	*
*ped	*	*
24AA-\LL	24ee-\LL	.
*	*cue	*
24E-	24a-	.
24A-	24cc	.
24c	24e-	.
24A-	24a-	.
*Xped	*	*
24E-JJ	24ccJJ	.
!!LO:LB:g=original
=41	=41	=41
*ped	*	*
*Xcue	*Xcue	*
24EE-\LL	24dd-LL	.
*cue	*cue	*
24AA-	24e-	.
24E-	24a-	.
24A-	24d-	.
24E-	24e-	.
*Xped	*	*
24AA-JJ	24a-JJ	.
*	*Xcue	*
*ped	*	*
24EE-\LL	24ccLL	.
*	*cue	*
24AA-	24e-	.
24E-	24a-	.
24A-	24c	.
24E-	24e-	.
*Xped	*	*
24AA-JJ	24a-JJ	.
*	*Xcue	*
*ped	*	*
24EE-\LL	24dd-LL	.
*	*cue	*
24AA-	24e-	.
24E-	24a-	.
24A-	24d-	.
24E-	24e-	.
*Xped	*	*
24AA-JJ	24a-JJ	.
*	*Xcue	*
*ped	*	*
24EE-\LL	24ccLL	.
*	*cue	*
24AA-	24e-	.
24E-	24a-	.
24A-	24c	.
24E-	24e-	.
*Xped	*	*
24AA-JJ	24a-JJ	.
=42	=42	=42
*Xcue	*Xcue	*
*ped	*	*
24AAA-LL	24b-LL	.
*cue	*cue	*
24EE-	24c	.
24AA-	24e-	.
*	*Xcue	*
24E-	24B-	.
*	*cue	*
24AA-	24c	.
24EE-JJ	24e-JJ	.
*Xcue	*Xcue	*
24AAA-LL	24a-LL	.
*cue	*cue	*
24EE-	24c	.
24AA-	24e-	.
*	*Xcue	*
24E-	24A-	.
*	*cue	*
24AA-	24c	.
24EE-JJ	24e-JJ	.
*Xcue	*Xcue	*
24AAA-LL	24b-LL	.
*cue	*cue	*
24EE-	24c	.
24AA-	24e-	.
*	*Xcue	*
24E-	24B-	.
*	*cue	*
24AA-	24c	.
24EE-JJ	24e-JJ	]
*Xcue	*Xcue	*
!	!LO:TX:b:i:t=smorzando.	!
24AAA-LL	24a-LL	.
*cue	*cue	*
24EE-	24c	.
24AA-	24e-	.
*	*Xcue	*
24E-	24A-	.
*	*cue	*
24AA-	24c	.
24EE-JJ	24e-JJ	.
!!LO:LB:g=original
=43	=43	=43
*Xcue	*Xcue	*
24AAA-LL	24b-LL	.
*cue	*cue	*
24EE-	24c	.
24AA-	24e-	.
*	*Xcue	*
24E-	24B-	.
*	*cue	*
24AA-	24c	.
24EE-JJ	24e-JJ	.
*Xcue	*Xcue	*
24AAA-LL	24a-LL	.
*cue	*cue	*
24EE-	24c	.
24AA-	24e-	.
*	*Xcue	*
24E-	24A-	.
*	*cue	*
24AA-	24c	.
24EE-JJ	24e-JJ	.
*Xcue	*Xcue	*
24AAA-LL	24b-LL	.
*cue	*cue	*
24EE-	24c	.
24AA-	24e-	.
*	*Xcue	*
24E-	24B-	.
*	*cue	*
24AA-	24c	.
24EE-JJ	24e-JJ	.
*Xcue	*Xcue	*
24AAA-LL	24a-LL	.
*cue	*cue	*
24EE-	24c	.
24AA-	24e-	.
*	*Xcue	*
24E-	24A-	.
*	*cue	*
24AA-	24c	.
*Xped	*	*
24EE-JJ	24e-JJ)	.
*ped	*	*
=44	=44	=44
24AAA-\LL	24r	.
!	!LO:TX:a:i:t=leggieriss.	!
!	!LO:TX:t=P:mixed beam:problem	!
24EE-	(>/24C<LL	pp
24AA-	/24E-<	.
24C	/24A-<	.
24E-	24c\	.
24A-JJ	24e-\JJ	.
*clefG2	*	*
24c\LL	24a-\LL	.
24e-	24cc	.
24a-	24ee-	.
*	*8va	*
24cc	24aa-	.
24ee-	24ccc	.
24aa-JJ	24eee-JJ	.
*Xcue	*Xcue	*
24ccc\LL	24aaa-\LL	.
*cue	*cue	*
24aa-	24eee-	.
24ee-	24ccc	.
24cc	24aa-	.
24a-	24ee-	.
24e-JJ	24ccJJ	.
*Xcue	*Xcue	*
24A-LL	24a-LL	.
*cue	*cue	*
24e-	24cc	.
24a-	24ee-	.
24cc	24aa-	.
24ee-	24ccc	.
24aa-JJ	24eee-JJ	.
!!LO:LB:g=original
=45	=45	=45
*Xcue	*Xcue	*
24ccc\LL	24aaa-\LL	.
*cue	*cue	*
24aa-	24eee-	.
24ee-	24ccc	.
24cc	24aa-	.
24a-	24ee-	.
24e-JJ	24ccJJ	.
*Xcue	*Xcue	*
24A-LL	24a-LL	.
*cue	*cue	*
24e-	24cc	.
24a-	24ee-	.
24cc	24aa-	.
24ee-	24ccc	.
24aa-JJ	24eee-JJ	.
*Xcue	*Xcue	*
24ccc\LL	24aaa-\LL	.
*cue	*cue	*
24aa-	24eee-	.
24ee-	24ccc	.
24cc	24aa-	.
24a-	24ee-	.
24e-JJ	24ccJJ	.
*Xcue	*Xcue	*
24A-LL	24a-LL	.
*cue	*cue	*
24e-	24cc	.
24a-	24ee-	.
24cc	24aa-	.
24ee-	24ccc	.
24aa-JJ	24eee-JJ	.
=46	=46	=46
*Xcue	*Xcue	*
24ccc\LL	24aaa-\LL	.
*cue	*cue	*
24aa-	24eee-	.
24ee-	24ccc	.
24cc	24aa-	.
24a-	24ee-	.
24e-JJ	24ccJJ	.
*	*X8va	*
!	!LO:TX:a:i:t=loco.	!
24A-LL	24a-\LL	<
24e-	24cc	.
24a-	24aa-	.
24ee-	24ccc	.
24a-	24aa-	.
24e-JJ	24ccJJ	.
24A-LL	24a-\LL	.
24e-	24cc	.
24a-	24aa-	.
24ee-	24ccc	.
24a-	24aa-	.
24e-JJ	24ccJJ	.
24A-LL	24a-\LL	.
24e-	24cc	.
24a-	24aa-	.
24ee-	24ccc	.
24a-	24aa-	.
24e-JJ	24ccJJ	.
!!LO:LB:g=original
=47	=47	=47
24A-LL	24a-\LL	.
24e-	24cc	.
24a-	24aa-	.
24ee-	24ccc	.
24a-	24aa-	.
24e-JJ	24ccJJ	[
24A-LL	24a-\LL	.
24e-	24cc	.
24a-	24aa-	.
24ee-	24ccc	.
24a-	24aa-	.
24e-JJ	24ccJJ	.
24A-LL	24a-\LL	>
24e-	24cc	.
24a-	24aa-	.
24ee-	24ccc	.
24a-	24aa-	.
24e-JJ	24ccJJ	.
*	*	*^
.	.	.	ppp
*	*	*v	*v
24A-LL	24a-\LL	.
24e-	24cc	.
24a-	24aa-	.
24ee-	24ccc	.
24a-	24aa-	.
24e-JJ	24ccJJ	]
=48	=48	=48
*Xcue	*Xcue	*
4A-'	4a-')	.
*clefF4	*	*
:4c' 4E- 4AA-	4aaa-' 4aa-	.
*Xped	*	*
.	.	.
4r	4r	.
*ped	*	*
.	.	.
16qqDDn/LL	.	.
16qqEE-/JJ	.	.
4EE-T	(>4cc 4e-	.
*Xped	*	*
.	.	.
=49	=49	=49
*ped	*	*
:1E- 1AA- 1AAA-	):1a- 1c	.
!LO:TX:b:i:t=FINE.	!	!
.	.	.
==	==	==
*-	*-	*-
!!title: @{OTL}; @{OPS} @{ONM} publisher: @{PPR}
!!!RDF**kern: > = above
!!!RDF**kern: < = below
!!!RDF**dynam: > = "dimin." fontstyle="italic"
!!!ENC: Tomasz Sierawski
!!!END: 2018-09-30
!!!EED: Mateusz Mrugas
!!!EST: revision finished 2018-10-02
!!!EED2: Jędrzej Mróz
!!!EST: revision finished 2019-10-11
!!!rism-genre: Etude
!!!rism-key: A-flat major
!!!rism-opus: op. 25, no. 1
!!!rism-title: Etude in A-flat major op. 25, no. 1
!!!rism-permalink: https://opac.rism.info/search?id=1001014790&View=rism
!!!rism-773a-OPR: 1001014781
!!!rism-parent-permalink: https://opac.rism.info/search?id=1001014781&View=rism
